X:1
T:Jubilate Deo
T:A Major         Israel Holdroyd, 1724
T:Transcribed from The Spiritual Man's Companion, 1724
T:Based on Psalm 100
T:No Copyright.  Transcribed from Suffolk Harmony, 1786.
T:No Copyright.  Transcribed from Suffolk Harmony, 1786.
T:No Copyright.  Transcribed from Suffolk Harmony, 1786.
T:No Copyright.  Transcribed from Suffolk Harmony, 1786.
T:No Copyright.  Transcribed from Suffolk Harmony, 1786.
Z:No Copyright.  Transcribed from Suffolk Harmony, 1786.
%%score [ 1 2 3 4 ]
L:1/8
Q:1/4=90
M:3/4
K:A
V:1 treble nm="Treble" snm="Treble"
V:2 treble nm="Contra" snm="Contra"
V:3 treble-8 nm="Tenor" snm="Tenor"
V:4 bass nm="Bass" snm="Bass"
V:1
 z6 | z6 | z6 | z6 | z6 | z6 | z6 | z6 | z6 | z6 | z6 | z6 | z6 | z2 z2 E3/2 F/ | (G>AG>A B2) | %15
w: |||||||||||||O be|joy- * * * *|
 A2 z2 A2 | B2 cB A2 | G2 (F2 E2) | (c>B A2) dc | B6 | A6 | z6 | z6 | z6 | z6 | z6 | z6 | z6 | z6 | %29
w: ful, be|joy- ful * in|the Lord, *|all, * * all *|ye|lands.|||||||||
 z6 | z6 | F2 G2 A2 | c2 BA G2 | F2 G2 (A>G | F>GA>B c2) | d/c/B/A/ G4 ||[M:2/4] z2 E E | F2 G G | %38
w: ||Be ye sure,|be ye * sure|that the Lord  _|_ _ _ _ _|he's  * * * God.|||
 A2 A A | G2 G2 | G G A>B | cd/c/ B2 | B4 | B4 | z4 | z4 | z4 | z4 | z4 | z4 | z4 | z4 | z4 || %53
w: |||||||||||||||
[M:2/2] c4 B2 A2 | G4 A4 | F2 G2 ^E4 | C4 F2 G2 | A4 G2 F2 | ^D8 | C8 ||[M:3/4] z6 | z6 | z6 | z6 | %64
w: O go your|way, O|go your way|in- to his|gates with thank-|gi-|ving,|||||
 z6 ||[M:2/2] c4 B2 A2 | G2 F2 ^E4 | ^E4 F2 G2 | A2 B2 c4 | Bc d2 c2 BA | (G3 F) F4 || %71
w: |Be thank- ful|un- to him,|be thank- ful|un- to him,|and * speak good of *|his * name.|
"^Quick"[Q:1/4=170] z8 | z8 | z8 | A2 G2 A4 | G4 (ABcA | B4) G4 | G4 A4 | A4 F4 | G4 G4 | %80
w: |||For the Lord|is gra- * * *|* cious,||||
 G4 A2 A2 | G4 G4 | G4 A2 A2 | G8 | G8 | z8 | z4 c2 B2 | (A2 c2) (B2 A2) | (G4 A4) | B4 c4 | %90
w: ||||||And his|truth * en- *|dures, *|en- dures|
 c4 c4 | B4 A4 | B2 c2 A4 | G4 F4 | z2 F6 | z8 | z4 A4 | (G6 F2) | F8 | ^E8 | F8 || A4 G4 | A4 c4 | %103
w: from ge-|ne- ra-|tion to ge-|ne- ra-|tion,||to|ge- *|ne-|ra-|tion.|||
 B8 | z4 A2 G2 | F4 B4 | A4 (B2 A2) | G6 G2 | A8 | c2 B2 A2 A2 | F2 c2 B4 | z2 A2 c2 B2 | %112
w: |||||||||
 A2 F2 G4 | A2 A G F2 F2 | E2 A6 | A4 F2 c2 | B8 | G8 | A8 |] %119
w: |||||||
V:2
 z6 | z6 | z6 | z6 | z6 | z6 | z6 | C3/2 D/ (E>FE>F | E>F E2) C2 | D2 ^D2 E2 | B,2 ^D4 | E4 z2 | %12
w: |||||||O be joy- * * *|* * * ful|in the Lord,|all ye|lands.|
 z6 | z2 z2 E3/2 E/ | (E>FE>F E2) | E2 z2 E2 | E2 E2 B,2 | E2 (D>C B,2) | F6 | E6 | E6 | z6 | z6 | %23
w: |O be|joy- * * * *|ful, be|joy- ful in|the Lord * *|all|ye|lands.|||
 z6 | z6 | z6 | z6 | z6 | z6 | z6 | z6 | z6 | z6 | z6 | z6 | z6 ||[M:2/4] z2 C C | C2 E E | %38
w: |||||||||||||It is|he, it is|
 E2 E E | E2 E2 | E E E2 | AG F2 | F4 | G4 | z4 | z4 | A2 G F | ^E2 E2 | z4 | z4 | z4 | z4 | z4 || %53
w: he that has|made us|and not we,|not * we|our-|selves.|||We are his|peo- ple,||||||
[M:2/2] z8 | z8 | z8 | z8 | z8 | z8 | z8 ||[M:3/4] z6 | z6 | z6 | z6 | z6 ||[M:2/2] z8 | z8 | z8 | %68
w: |||||||||||||||
 z8 | z8 | z8 || z8 | z8 | z8 | F2 ^E2 F4 | C4 (FGAF | G4) ^E4 | ^E4 F4 | F4 F4 | ^D4 D4 | %80
w: |||||||is gra- * * *|* cious;|His mer-|cy, his|mer- cy|
 C4 C2 ^B,2 | (C2 ^B,2) B,4 | C4 C2 ^D2 | (E2 ^D6) | C8 | z8 | z4 A2 G2 | F4 (G2 F2) | (^E4 F4) | %89
w: is ev- er-|las- * ting,|is ev- er-|las- *|ting.||And his|truth en- *|dures, *|
 F4 F4 | ^E4 F4 | G4 A4 | G2 F2 C4 | ^E4 F4 | z2 F6 | z8 | z4 E4 | D8 | D8 | C8 | C8 || E4 E4 | %102
w: en- dures|from ge-|ne- ra-|tion to ge-|ne- ra-|tion.||to|ge-|ne-|ra-|tion.|Glo- ry,|
 E4 E4 | E8 | z4 E2 E2 | F4 G4 | (A2 G2) F4 | E6 E2 | E8 | E2 DF E2 E2 | D2 C2 F4 | z2 E2 E2 E2 | %112
w: glo- ry|be|to the|Fa- ther,|Son, * and|Ho- ly|Ghost.|As it * was in|the be- gin-|ning, is now,|
 E2 ^D2 E4 | E2 D D C2 C2 | E2 E6 | C4 F2 E2 | F8 | E8 | E8 |] %119
w: now, now, now|and ev- er, ev- er|shall be,|World with- out|end,|A-|men.|
V:3
 A2 (A2 E2) | (A>Bc>BA>c | B2) E2 F2 | G2 (A2 B2) | (c>BA>c B2) | G6 | A6 | z6 | z6 | z6 | z6 | %11
w: O be  _|joy- * * * * *|* ful in|the Lord, *|all  _ _ _ _|ye|lands.|||||
 z6 | z2 z2 E3/2 F/ | (G>AG>A B2) | B2 B2 G2 | A2 z2 c2 | B2 E2 F2 | G2 (A2 B2) | (c>BA>c B2) | %19
w: |O be|joy- * * * *|ful, be joy-|ful, be|joy- ful in|the Lord, *|all  _ _ _ _|
 G6 | A6 | B3/2 c/ B2 E2 | A>Bc>BA>G | F2 z2 G2 | (A>BA>Bc>d | c>dc>d c2) | c2 cB ^A2 | F2 B2 c2 | %28
w: ye|lands.|Serve the Lord with|glad- * * * * *|ness, with|glad- * * * * *||ness, And * come|be- fore his|
 d4 cB | A2 G4 | F6 | z6 | z6 | z6 | z6 | z6 ||[M:2/4] z2 G G | A2 B B | c2 c c | B2 B2 | B B c2 | %41
w: pre- sence *|with a|song.|||||||||||
 e2 e2 | ^d4 | e4 | z4 | z4 | z4 | z4 | A A d2 | c2 (d2 | ^e2) f=e | dc (^B2 | A2) G2 || %53
w: |||||||and the sheep,|the sheep|* of *|his * pas-|* ture.|
[M:2/2] z8 | z8 | z8 | z8 | z8 | z8 | z8 ||[M:3/4] A2 B2 c2 | B2 (c>dc>B | A>cB>AG>B | %63
w: |||||||And in- to|his courts  _ _ _|_ _ _ _ _ _|
 A>GF/G/A/F/ B2) | B2 c4 ||[M:2/2] z8 | z8 | z8 | z8 | z8 | z8 || A2 G2 A4 | G4 (ABcA | B4) G4 | %74
w: |with praise.|||||||For the Lord|is gra- * * *|* cious,|
 (A2 B2) c4 | c4 (c>B A2) | G4 G4 | G4 F4 | F4 c4 | (c2 ^B2) B4 | G4 c2 ^d2 | (e2 ^d2) d4 | %82
w: is * gra-|cious, is * *|gra- cious;||||||
 e4 ^d2 c2 | (c2 ^B6) | c8 | c2 B2 (A2 c2) | (B2 A2) (A4 | A8) | c4 c4 | B4 A4 | B2 c2 A4 | %91
w: |||and his truth *|en- * dures,||from ge-|ne- ra-|tion to ge-|
 G4 F4- | F4 F4 | z8 | z8 | z8 | z4 (d2 c2) | B8 | (B6 A2) | G8 | F8 || c4 B4 | c4 A4 | B8 | %104
w: ne- ra-|* tion,||||to *|ge-|ne- *|ra-|tion.||||
 z4 c2 B2 | A4 e4 | c4 (d2 c2) | B6 A2 | A8 | A2 G2 A2 c2 | B2 A2 B4 | z2 c2 A2 B2 | c2 A2 B4 | %113
w: |||||||||
 c2 B B A2 A2 | B2 c6 | c4 d2 e2 | (d6 c2) | B8 | A8 |] %119
w: ||||||
V:4
 A,,>B,,C,D,E,3/2 D,/ | C,>B,, A,,2 A,,2 | E,2 C,2 D,2 | E,2 (F,2 G,2) | (A,>G, F,2 B,,2) | E,6 | %6
w: O  _ _ _ _ be|joy- * ful, be|joy- ful in|the Lord, *|all  _ _ _|ye|
 A,,6 | z6 | z6 | z6 | z6 | z4 A,,3/2 B,,/ | (C,>D,C,>D, E,2) | E,2 E,2 E,2 | E,2 E,2 E,2 | %15
w: lands.|||||O be|joy- * * * *|ful, be joy-|ful, be joy-|
 C,2 z2 A,,2 | E,2 C,2 D,2 | E,2 (F,2 G,2) | (A,>G, F,2) B,,2 | E,6 | A,,6 | z6 | z6 | z6 | %24
w: ful, be|joy- ful in|the Lord, *|all  _ _ all|ye|lands.||||
 F,3/2 G,/ F,2 C,2 | (F,>G,A,>G, F,2) | C,2 C,2 F,2 | F,E, D,2 C,2 | B,,4 B,,2 | C,4 C,2 | F,6 | %31
w: Serve the Lord with|glad- * * * *|ness, And com|be- * fore his|pre- sence|with a|song.|
 F,2 ^E,2 F,2 | A,2 G,F, ^E,2 | F,2 C,2 (F,>E, | D,4) C,2 | B,,2 C,4 ||[M:2/4] z2 C, C, | %37
w: Be ye sure,|be ye * sure|that the Lord, *|* he|is God.||
 F,2 E, E, | A,2 A, A, | E,2 E,2 | E, E, A,2 | A,B,/A,/ B,2 | B,,4 | E,4 | A,2 G, F, | ^E,2 E,2 | %46
w: |||||||We are his|peo- ple,|
 F,2 ^E, F, | C,2 C,2 | C, C, D,2 | C,2 (F,2 | ^E,2) F,2 | G,2 G,,2- | G,,2 C,2 ||[M:2/2] z8 | z8 | %55
w: We are his|peo- ple,|and the sheep,|the sheep|* of|his pas-|* ture.|||
 z8 | z8 | z8 | z8 | z8 ||[M:3/4] z6 | z6 | z6 | z6 | z6 ||[M:2/2] A,4 G,2 F,2 | ^E,2 F,2 C,4 | %67
w: ||||||||||Be * ful|un- to him,|
 C,4 F,2 ^E,2 | F,2 G,2 A,4 | G,A, B,2 C2 C,2 | C,4 F,4 || F,2 ^E,2 F,4 | C,4 (F,G,A,F, | %73
w: be thank- ful|un- to him,|and * speak good of|his name.|For the Lord|is gra- * * *|
 G,4) C,4 | F,4 F,4 | ^E,4 (A,>G, F,2) | ^E,4 E,4 | C,4 F,4 | F,4 A,4 | (A,2 G,2) G,4 | %80
w: * cious,|is gra-|cious, is * *|gra- cious;||||
 ^E,4 F,2 F,2 | G,4 G,4 | E,4 F,2 F,2 | G,8 | C,8 | A,2 G,2 F,4 | (G,2 F,2) C,4- | C,8 | C,4 F,4 | %89
w: |||||and his truth|en- * dures,||from ge-|
 G,4 A,4 | G,2 F,2 C,4 | ^E,4 F,4- | F,4 F,4 | C,4 D,4- | D,4 D,4 | C,8 | C,4 A,,4 | B,,8 | B,,8 | %99
w: ne- ra-|tion to ge-|ne- ra-|* tion,|From ge-|* ne-|ra-|tion to|ge-|ne-|
 C,8 | [F,,F,]8 || A,4 E,4 | A,4 A,,4 | E,8 | z4 C,2 C,2 | D,4 E,4 | F,4 B,,4 | E,6 E,2 | A,,8 | %109
w: ra-|tion.|||||||||
 A,,2 B,,2 C,2 A,,2 | B,,2 C,2 D,4 | %111
w: ||
 z2"_________________________________________________\nEdited by B. C. Johnston, 2018\n   1. Measure 20, \nTenor\n: note changed from A to G#.\n   2. Measure 51, \nTenor\n: first note changed from E to E#, like \nBass\n.\n   3. Measure 53, \nTenor\n: last note changed from A to G#.\n   4. Measure 87, Tenor: last note changed from G# to A." C,2 A,2 E,2 | %112
w: |
 C,2 F,2 E,4 | C,2 D, E, F,2 F,2 | G,2 A,6 | A,,4 B,,2 C,2 | D,8 | E,8 | A,,8 |] %119
w: |||||||

